do
  --orbitは出力する際のエフェクトのかけ方を分ける。
  d1 $ sound "feel*4" # room 0.9 # sz 0.9 # orbit 0
  --%はその中を指定の音符でならす(下では8部音符)
  --/はその中の速度を下げる。下では2倍。
  --よって、"[{0 [0 4] 7 0 7 0}%4]"　は下と同義
  d2 $ n (scale "dorian" "{[{0 [0 4] 7 0 7 0}%8]/2}" + ptn) # s "superpiano"
hush
