setcps(140/60/4)

do
  d1 $ n "[c4,e4,a4]!2" # s "superhammond" # gain "0.6"
  d2 $ n "[e4.g4,b3]" # s "superhammond" # gain "0.7"
  d3 $ stack[s "808oh:1", s "casio:2",
            s "noise:2!4", s "clak!4"],
            s "hh:5!8"]
  d4 $ n "[g4,b4,c3]" # s "superhammond" # gain "0.5" #sustain "0.5"
  d5 $ stack[octave 3  #s "moon:3" #gain "0.5",octave 3
        # s "superhex" #gain "0.3"]
  d6 $ n "[e4,g4,c3]" # s "superpiano" #gain "0.6"
  solo 3
--<(__)>
hush
